X:10
T: Lad O'Beirne's [a]
S: Brian Conway
Z: B.Black
R: reel
M: 4/4
L: 1/8
K: G
DG G2 DGBG | AcBG AE E2 | DG G2 DGBd | egfg e2 ge |
dB B2 AGEG | cE E2 GEDB | DEGA B2 eB | dBAc BG G2 :|
d2 ce d2 Bd | egdg e2 ge | dB B2 AGEG | cE E2 GEDc |
Bd d2 Bdef | gfga gedB | DEGA B2 eB | dBAc BG G2 :|
